!!!COM: Matthias Weckmann
!!!OPR: Es ist das Heil uns kommen her
!!!OTL: Quartus Versus.  Canon in subdiapason post seminimimam.
!!!YOR: From "Matthias Weckmann Choralbearbeitungen" edited by Werner Breig
!!!YOR: Baerenreiter Publisher, Kassel, 1979; pp. 15-17.
**kern	**kern	**kern
*CF	*conseq	*guida
*k[]	*k[]	*k[]
*M4/4	*M4/4	*M4/4
=1-	=1-	=1-
1GG	2r	4r
.	.	4.dd
.	4.d	.
.	.	8dd
.	.	8b
.	8d	8b
=2	=2	=2
2GG	8B	4g
.	8B	.
.	4G	4.gg
2GG	4.g	.
.	.	8gg
.	.	8dd
.	8g	8dd
=3	=3	=3
2GG	8d	16b
.	.	16cc
.	8d	16dd
.	.	16g
.	16B	4gg
.	16c	.
.	16d	.
.	16G	.
2BB-	4g	16dd
.	.	16ee
.	.	16dd
.	.	16ee
.	16d	4ff
.	16e	.
.	16d	.
.	16e	.
=4	=4	=4
2AA	4f	16cc
.	.	16dd
.	.	16cc
.	.	16dd
.	16c	4ee
.	16d	.
.	16c	.
.	16d	.
2GG	4e	16b
.	.	16cc
.	.	16b
.	.	16cc
.	16B	4dd
.	16c	.
.	16B	.
.	16c	.
=5	=5	=5
1FF	4d	16a
.	.	16b
.	.	16a
.	.	16b
.	16A	4.cc
.	16B	.
.	16A	.
.	16B	.
.	4.c	.
.	.	8ff
.	.	8ff
.	8f	8cc
=6	=6	=6
1r	8f	8cc
.	8c	8a
.	8c	8a
.	8A	8f
.	8A	8ff
.	8F	8dd
.	8f	8.dd
.	8d	.
.	.	16cc
=7	=7	=7
1GG	8.d	8b
.	.	8dd
.	16c	.
.	8B	8.dd
.	8d	.
.	.	16cc
.	8.d	8b
.	.	8g
.	16c	.
.	8B	[4g
.	8G	.
=8	=8	=8
2EE	4.G	8g]
.	.	8g
.	.	16cc
.	.	16g
.	8G	16cc
.	.	16dd
2CC	16c	8.ee
.	16G	.
.	16c	.
.	16d	16ff
.	8.e	8gg
.	.	[8cc
.	16f	.
=9	=9	=9
2EE	8g	16cc]
.	.	16dd
.	[8c	16ee
.	.	16dd
.	16c]	8.cc
.	16d	.
.	16e	.
.	16d	16b
2FF	8.c	16a
.	.	16f
.	.	[8ff
.	16B	.
.	16A	16ff]
.	16F	16ee
.	[8f	16dd
.	.	16cc
=10	=10	=10
2GG	16f]	8b
.	16e	.
.	16d	[8gg
.	16c	.
.	8B	16gg]
.	.	16ff
.	[8g	16ee
.	.	16dd
2AA	16g]	8cc
.	16f	.
.	16e	[8ff
.	16d	.
.	8c	16ff]
.	.	16ee
.	[8f	16dd
.	.	16cc
=11	=11	=11
1GG	16f]	8b
.	16e	.
.	16d	8cc
.	16c	.
.	8B	16dd
.	.	16cc
.	8c	16b
.	.	16a
.	16d	16b
.	16c	16a
.	16B	16g
.	16A	16f#
.	16B	8.g
.	16A	.
.	16G	.
.	16F#	16a
=12	=12	=12
1r	8.G	8.b
.	16A	16cc
.	8.B	8.dd
.	16c	16ee
.	8.d	8.b
.	16e	16cc
.	8.B	8.dd
.	16c	16ee
=13	=13	=13
1GG	8.d	16b
.	.	16a
.	.	16b
.	16e	16cc
.	16B	16dd
.	16A	16cc
.	16B	16dd
.	16c	16ee
.	16d	16ff
.	16c	16ee
.	16d	16dd
.	16e	16cc
.	16f	16dd
.	16e	16cc
.	16d	16b
.	16c	16a
=14	=14	=14
2GG	16d	16b
.	16c	16a
.	16B	16g
.	16A	16f#
.	16B	8g
.	16A	.
.	16G	[8gg
.	16F#	.
2GG	8G	16gg]
.	.	16ffn
.	[8g	16ee
.	.	16ff
.	16g]	8dd
.	16fn	.
.	16e	8cc
.	16f	.
=15	=15	=15
2GG	8d	16b
.	.	16a
.	8c	16b
.	.	16cc
.	16B	[4dd
.	16A	.
.	16B	.
.	16c	.
2BB-	[4d	16dd]
.	.	16cc
.	.	16dd
.	.	16ee
.	16d]	8ff
.	16c	.
.	16d	16ee
.	16e	16dd
=16	=16	=16
2AA	8f	8.cc
.	16e	.
.	16d	16dd
.	8.c	16ee
.	.	16dd
.	.	16ee
.	16d	16ff
2GG	16e	8gg
.	16d	.
.	16e	16ff
.	16f	16ee
.	8g	16dd
.	.	16cc
.	16f	16dd
.	16e	16ee
=17	=17	=17
1FF	16d	8ff
.	16c	.
.	16d	16ee
.	16e	16dd
.	8f	16cc
.	.	16dd
.	16e	16cc
.	16d	16b
.	16c	16a
.	16d	16b
.	16c	16a
.	16B	16dd
.	16A	16cc
.	16B	16dd
.	16A	16cc
.	16d	16b
=18	=18	=18
1r	16c	16a
.	16d	16b
.	16c	16a
.	16B	16g
.	16A	16f
.	16B	16g
.	16A	16f
.	16G	16g
.	16F	8a
.	16G	.
.	16F	[8dd
.	16G	.
.	8A	16dd]
.	.	16cc
.	[8d	16b
.	.	16a
=19	=19	=19
1GG	16d]	8b
.	16c	.
.	16B	[8dd
.	16A	.
.	8B	16dd]
.	.	16cc
.	[8d	16b
.	.	16a
.	16d]	8b
.	16c	.
.	16B	[8g
.	16A	.
.	8B	16g]
.	.	16f
.	[8G	16e
.	.	16d
=20	=20	=20
2EE	16G]	8c
.	16F	.
.	16E	[8gg
.	16D	.
.	8C	16gg]
.	.	16ff
.	[8g	16ee
.	.	16dd
2CC	16g]	8ee
.	16f	.
.	16e	[8cc
.	16d	.
.	8e	16cc]
.	.	16cc
.	[8c	16b
.	.	16a
=21	=21	=21
2EE	16c]	8g
.	16c	.
.	16B	[8cc
.	16A	.
.	8G	16cc]
.	.	16b
.	[8c	16a
.	.	16g
2FF	16c]	8a
.	16B	.
.	16A	[8dd
.	16G	.
.	8A	16dd]
.	.	16cc
.	[8d	16b
.	.	16a
=22	=22	=22
2GG	16d]	8b
.	16c	.
.	16B	[8ee
.	16A	.
.	8B	16ee]
.	.	16dd
.	[8e	16cc
.	.	16b
2AA	16e]	8cc
.	16d	.
.	16c	[8ff
.	16B	.
.	8c	16ff]
.	.	16ee
.	[8f	16dd
.	.	16cc
=23	=23	=23
1GG	16f]	8b
.	16e	.
.	16d	[8gg
.	16c	.
.	8B	16gg]
.	.	16ff
.	[8g	16ee
.	.	16dd
.	16g]	16ee
.	16f	16dd
.	16e	[8gg
.	16d	.
.	16e	16gg]
.	16d	16ff
.	[8g	16ee
.	.	16ff
=24	=24	=24
1r	16g]	8dd
.	16f	.
.	16e	8cc
.	16f	.
.	8d	8b
.	8c	8cc
.	8B	16dd
.	.	8g
.	8c	.
.	.	16a
.	16d	8b
.	8G	.
.	.	8ee
.	16A	.
=25	=25	=25
1GG	8B	16dd
.	.	16ee
.	8e	16cc
.	.	16dd
.	16d	16b
.	16e	16cc
.	16c	16a
.	16d	16b
.	16B	4g
.	16c	.
.	16A	.
.	16B	.
.	4G	16r
.	.	16gg
.	.	16ff
.	.	16gg
=26	=26	=26
2C	16r	4ee
.	16g	.
.	16f	.
.	16g	.
.	4e	16r
.	.	16gg
.	.	16ff
.	.	16gg
2BB	16r	4dd
.	16g	.
.	16f	.
.	16g	.
.	4d	16r
.	.	16ff#
.	.	16ee
.	.	16ff#
=27	=27	=27
2AA	16r	4cc#
.	16f#	.
.	16e	.
.	16f#	.
.	4c#	16r
.	.	16ff#
.	.	16ee
.	.	16ff#
2BB	16r	4dd
.	16f#	.
.	16e	.
.	16f#	.
.	4d	16r
.	.	16gg
.	.	16ffn
.	.	16gg
=28	=28	=28
2C	16r	16ee
.	16g	16ee
.	16f	16dd
.	16g	16ee
.	16e	[4cc
.	16e	.
.	16d	.
.	16e	.
2AA	[4c	24cc]
.	.	24b
.	.	24cc
.	.	24dd
.	.	24ee
.	.	24dd
.	24c]	24ee
.	24B	24dd
.	24c	24ee
.	24d	24ff
.	24e	24gg
.	24d	24ff
=29	=29	=29
1GG	24e	24gg
.	24d	24ff
.	24e	24gg
.	24f	24ff
.	24g	12ee
.	24f	.
.	24g	12dd
.	24f	.
.	24g	24ee
.	24f	24dd
.	12e	24cc
.	.	24dd
.	12d	12b
.	24e	24cc
.	24d	24dd
.	24c	24ee
.	24d	24ff
.	12B	12dd
.	24c	24ee
.	24d	24dd
.	24e	24cc
.	24f	24dd
=30	=30	=30
1r	12d	12b
.	24e	24cc
.	24d	24b
.	24c	24a
.	24d	24b
.	12B	6g
.	24c	.
.	24B	.
.	24A	12f
.	24B	.
.	6G	24e
.	.	24B
.	.	24c
.	.	24d
.	12F	24e
.	.	24d
.	24E	24e
.	24BB	24d
.	24C	24e
.	24D	24f
.	24E	24g
.	24D	24f
=31	=31	=31
1GG	24E	24g
.	24D	24f
.	24E	24g
.	24F	24f
.	24G	12e
.	24F	.
.	24G	12d
.	24F	.
.	24G	24e
.	24F	24d
.	12E	24c
.	.	24d
.	12D	12B
.	24E	24gg
.	24D	24ff
.	24C	24ee
.	24D	24ff
.	12BB	12ee
.	24g	6dd
.	24f	.
.	24e	.
.	24f	.
=32	=32	=32
2C	12e	24cc
.	.	24b
.	6d	24cc
.	.	24dd
.	.	24ee
.	.	24ff
.	24c	[4gg
.	24B	.
.	24c	.
.	24d	.
.	24e	.
.	24f	.
2GG	[4g	24gg]
.	.	24g
.	.	24b
.	.	24a
.	.	24g
.	.	24f
.	24g]	[4e
.	24G	.
.	24B	.
.	24A	.
.	24G	.
.	24F	.
=33	=33	=33
2AA	[4E	24e]
.	.	24f
.	.	24g
.	.	24f
.	.	24e
.	.	24d
.	24E]	[4c
.	24F	.
.	24G	.
.	24F	.
.	24E	.
.	24D	.
2EE	[4C	24c]
.	.	24ee
.	.	24dd
.	.	24cc
.	.	24b
.	.	24a
.	24C]	12.b
.	24e	.
.	24d	.
.	24c	24cc
.	24B	24dd
.	24A	24ee
=34	=34	=34
2GG	12.B	12.dd
.	24c	24ee
.	24d	24ff
.	24e	24gg
.	12.d	12.b
.	24e	24cc
.	24f	24dd
.	24g	24ee
2GG	12.B	12.dd
.	24c	24cc
.	24d	[12b
.	24e	.
.	12.d	24b]
.	.	24cc
.	.	24b
.	24c	24a
.	[12B	24g
.	.	24f
=35	=35	=35
2.EE	24B]	12g
.	24c	.
.	24B	24gg
.	24A	24ff
.	24G	24ee
.	24F	24dd
.	12G	6ee
.	24g	.
.	24f	.
.	24e	12cc
.	24d	.
.	6e	12cc
.	.	12c
.	12c	[12cc
4FF	12c	24cc]
.	.	24cc
.	12C	24b
.	.	24cc
.	[12c	24b
.	.	24a
=36	=36	=36
1GG	24c]	24g
.	24c	24ee
.	24B	24dd
.	24c	24ee
.	24B	24dd
.	24A	24cc
.	24G	24b
.	24e	24gg
.	24d	24ff
.	24e	24gg
.	24d	24ff
.	24c	24ee
.	24B	24dd
.	24g	24ee
.	24f	24dd
.	24g	24ee
.	24f	24dd
.	24e	24cc
.	24d	8b
.	24e	.
.	24d	.
.	24e	[8g
.	24d	.
.	24c	.
=37	=37	=37
1r	8B	8g]
.	4G	8g
.	.	8b
.	8G	8b
.	8B	8dd
.	8B	4dd
.	8d	.
.	[8d	16cc
.	.	16b
=38	=38	=38
1FF	8d]	8a
.	16c	4f
.	16B	.
.	8A	.
.	4F	8f
.	.	8a
.	8F	8a
.	8A	8cc
.	8A	16b
.	.	16a
=39	=39	=39
2EE	8c	8g
.	16B	8g
.	16A	.
.	8G	8b
.	8G	8b
2DD	8B	8dd
.	8B	16dd
.	.	16cc
.	8d	8b
.	16d	16b
.	16c	16a
=40	=40	=40
2EE	8B	8g
.	16B	4gg
.	16A	.
.	8G	.
.	4g	8gg
2GG	.	8dd
.	8g	8b
.	8d	[4g
.	8B	.
=41	=41	=41
2EE	4.G	8g]
.	.	8a
.	.	8b
.	8A	16a
.	.	16g
2DD	8B	8.f#
.	16A	.
.	16G	16g
.	8.F#	8.a
.	16G	16b
=42	=42	=42
[1CC	8.A	8.cc
.	16B	16d
.	8.c	8.e
.	16D	16fn
.	8.E	8.g
.	16Fn	16f
*	*	*^
.	8.G	8.e	16r
.	.	.	16g
.	.	.	16a
.	16F	16d	16b
=43	=43	=43	=43
1CC]	1G	1e	1cc
==	==	==	==
*-	*-	*-	*-
!!!CDT: 1621///-1674//
!!!OCY: Deutschland
!!!ODT: <1674
!!!AFR: organ chorale
!!!AST: polyphony
!!!AMT: simple quadruple
!!!AIN: organ
!!!YEP: David Huron and Denis Collins
!!!YEN: Canada
!!!EEV: 1.0
!!!RDT: 1995 April 29
!!!YED: 1995 August 31
